packages/components/icon/src/svg/calendar-m.svg

<svg id="icons" xmlns="http://www.w3.org/2000/svg" viewBox="0 0 24 24"><title>01-01-calendar-m</title><rect id="canvas" width="24" height="24" style="fill:none"/><path d="M6.75,19.60547h10.5a2.7528,2.7528,0,0,0,2.75-2.75V9.31592a2.75311,2.75311,0,0,0-2.75-2.75h-1.5V5.14453a.75.75,0,0,0-1.5,0V6.56592H9.75V5.14453a.75.75,0,0,0-1.5,0V6.56592H6.75A2.75311,2.75311,0,0,0,4,9.31592v7.53955A2.7528,2.7528,0,0,0,6.75,19.60547ZM5.5,9.31592a1.25116,1.25116,0,0,1,1.25-1.25h1.5V9.36719a.75.75,0,0,0,1.5,0V8.06592h4.5V9.36719a.75.75,0,0,0,1.5,0V8.06592h1.5a1.25116,1.25116,0,0,1,1.25,1.25v7.53955a1.25116,1.25116,0,0,1-1.25,1.25H6.75a1.25116,1.25116,0,0,1-1.25-1.25Z"/></svg>

<svg id="icons" xmlns="http://www.w3.org/2000/svg" viewBox="0 0 24 24"><defs><style>.cls-1{fill:none;}</style></defs><title>01-01-calendar-m</title><rect id="canvas" class="cls-1" width="24" height="24"/><path d="M17.25,6.57h-1.5V5.14a.75.75,0,0,0-1.5,0V6.57H9.75V5.14a.75.75,0,0,0-1.5,0V6.57H6.75A2.75,2.75,0,0,0,4,9.32v7.54a2.75,2.75,0,0,0,2.75,2.75h10.5A2.75,2.75,0,0,0,20,16.86V9.32A2.75,2.75,0,0,0,17.25,6.57ZM18.5,16.86a1.26,1.26,0,0,1-1.25,1.25H6.75A1.26,1.26,0,0,1,5.5,16.86V9.32A1.25,1.25,0,0,1,6.75,8.07h1.5v1.3a.75.75,0,0,0,1.5,0V8.07h4.5v1.3a.75.75,0,0,0,1.5,0V8.07h1.5A1.25,1.25,0,0,1,18.5,9.32Z"/></svg>
